desktop/resources/assets/weather-sunny.svg

<svg width="16" height="16" viewBox="0 0 16 16" fill="none" xmlns="http://www.w3.org/2000/svg">
<path d="M8 1C8.27614 1 8.5 1.22386 8.5 1.5V2.5C8.5 2.77614 8.27614 3 8 3C7.72386 3 7.5 2.77614 7.5 2.5V1.5C7.5 1.22386 7.72386 1 8 1ZM8 11C9.65685 11 11 9.65685 11 8C11 6.34315 9.65685 5 8 5C6.34315 5 5 6.34315 5 8C5 9.65685 6.34315 11 8 11ZM8 10C6.89543 10 6 9.10457 6 8C6 6.89543 6.89543 6 8 6C9.10457 6 10 6.89543 10 8C10 9.10457 9.10457 10 8 10ZM14.5 8.5C14.7761 8.5 15 8.27614 15 8C15 7.72386 14.7761 7.5 14.5 7.5H13.5C13.2239 7.5 13 7.72386 13 8C13 8.27614 13.2239 8.5 13.5 8.5H14.5ZM8 13C8.27614 13 8.5 13.2239 8.5 13.5V14.5C8.5 14.7761 8.27614 15 8 15C7.72386 15 7.5 14.7761 7.5 14.5V13.5C7.5 13.2239 7.72386 13 8 13ZM2.5 8.5C2.77614 8.5 3 8.27614 3 8C3 7.72386 2.77614 7.5 2.5 7.5H1.5C1.22386 7.5 1 7.72386 1 8C1 8.27614 1.22386 8.5 1.5 8.5H2.5ZM3.14645 3.14649C3.34171 2.95123 3.65829 2.95123 3.85355 3.14649L4.85355 4.14649C5.04882 4.34175 5.04882 4.65834 4.85355 4.8536C4.65829 5.04886 4.34171 5.04886 4.14645 4.8536L3.14645 3.8536C2.95118 3.65834 2.95118 3.34175 3.14645 3.14649ZM3.85355 12.8536C3.65829 13.0489 3.34171 13.0489 3.14645 12.8536C2.95118 12.6584 2.95118 12.3418 3.14645 12.1465L4.14645 11.1465C4.34171 10.9513 4.65829 10.9513 4.85355 11.1465C5.04882 11.3418 5.04882 11.6584 4.85355 11.8536L3.85355 12.8536ZM12.8536 3.14649C12.6583 2.95123 12.3417 2.95123 12.1464 3.14649L11.1464 4.14649C10.9512 4.34175 10.9512 4.65834 11.1464 4.8536C11.3417 5.04886 11.6583 5.04886 11.8536 4.8536L12.8536 3.8536C13.0488 3.65834 13.0488 3.34175 12.8536 3.14649ZM12.1464 12.8536C12.3417 13.0489 12.6583 13.0489 12.8536 12.8536C13.0488 12.6584 13.0488 12.3418 12.8536 12.1465L11.8536 11.1465C11.6583 10.9513 11.3417 10.9513 11.1464 11.1465C10.9512 11.3418 10.9512 11.6584 11.1464 11.8536L12.1464 12.8536Z" fill="#888"/>
</svg>

<svg xmlns="http://www.w3.org/2000/svg" width="16" height="16" fill="none"><path fill="#888" d="M8 1a.5.5 0 0 1 .5.5v1a.5.5 0 0 1-1 0v-1A.5.5 0 0 1 8 1m0 10a3 3 0 1 0 0-6 3 3 0 0 0 0 6m0-1a2 2 0 1 1 0-4 2 2 0 0 1 0 4m6.5-1.5a.5.5 0 0 0 0-1h-1a.5.5 0 0 0 0 1zM8 13a.5.5 0 0 1 .5.5v1a.5.5 0 0 1-1 0v-1A.5.5 0 0 1 8 13M2.5 8.5a.5.5 0 0 0 0-1h-1a.5.5 0 0 0 0 1zm.646-5.354a.5.5 0 0 1 .708 0l1 1a.5.5 0 1 1-.708.708l-1-1a.5.5 0 0 1 0-.708m.708 9.708a.5.5 0 1 1-.708-.707l1-1a.5.5 0 0 1 .708.707zm9-9.708a.5.5 0 0 0-.708 0l-1 1a.5.5 0 0 0 .708.708l1-1a.5.5 0 0 0 0-.708m-.708 9.708a.5.5 0 0 0 .708-.707l-1-1a.5.5 0 0 0-.708.707z"/></svg>
